X:1
T:I'd rather be married than left
M:12/8
L:1/8
R:slide
D:The Smoky Chimney, track 1(a)
K:D
|: ABA AFA | d2D D2F  |  ABA AFA | B2E E2F |\
|  ABA AFA | B2g f2e  |1 dcB ABc | d2D D2F :|2 dcB ABc | d2D D2e ||
|: ~f3 def | e2A A2e  |  fef def | gfg e2g | fef g3 | fef a2f |\
|1 gfe ABc | d2D D2e :|2 gfe ABc | d2D D3 |]
